shader_type canvas_item;
uniform sampler2D screen_texture : hint_screen_texture, repeat_disable, filter_nearest;

void fragment() {
	COLOR = textureLod(screen_texture, SCREEN_UV, 0.0);// * sin(SCREEN_UV.x * (1.0 + SCREEN_UV.y * 0.1) * 10.0);
}
